img/svg/maintenance-4.svg

<svg width="51" height="50" viewBox="0 0 51 50" fill="none" xmlns="http://www.w3.org/2000/svg">
<path d="M16.4683 28.9294L5.9983 39.3995C5.57739 39.8204 5.57739 40.5043 5.9983 40.9252C6.20875 41.1357 6.47181 41.2409 6.73488 41.2409C6.99795 41.2409 7.26101 41.1357 7.47146 40.9252L17.9415 30.4552C18.3624 30.0343 18.3624 29.3504 17.9415 28.9294C17.5732 28.5085 16.8892 28.5085 16.4683 28.9294Z" fill="white"/>
<path d="M9.05005 43.9243C9.26051 44.1347 9.52357 44.2399 9.78664 44.2399C10.0497 44.2399 10.3128 44.1347 10.5232 43.9243L20.9932 33.4543C21.4141 33.0333 21.4141 32.3494 20.9932 31.9285C20.5723 31.5076 19.8884 31.5076 19.4675 31.9285L9.05005 42.4511C8.62915 42.872 8.62915 43.5034 9.05005 43.9243Z" fill="white"/>
<path d="M47.2992 33.349C44.9842 31.034 41.5118 30.1396 38.3024 31.034L30.8313 23.5103L42.3536 11.9881L45.0368 11.4093C45.5104 11.3041 45.8787 11.041 46.0891 10.6727L49.4563 5.20096C49.8773 4.5696 49.772 3.72779 49.1933 3.14905L46.7731 0.728846C46.2469 0.202714 45.4051 0.097488 44.7212 0.46578L39.302 3.83302C38.9337 4.09609 38.6707 4.46438 38.5654 4.88528L37.9867 7.62117L26.4644 19.1434L18.9407 11.6198C19.1512 10.8306 19.309 9.98876 19.309 9.14695C19.309 6.72674 18.362 4.41176 16.6257 2.67553C13.9425 -0.00773842 9.78604 -0.744322 6.36619 0.834072C6.05051 0.991911 5.84006 1.25498 5.73483 1.62327C5.68222 1.99156 5.78744 2.30724 6.05051 2.57031L9.47036 5.99016C9.94388 6.46368 10.2069 7.04242 10.2069 7.72639C10.2069 8.41036 9.94388 8.98911 9.47036 9.46263C8.52333 10.4097 6.94493 10.4097 5.9979 9.46263L2.57804 5.99016C2.31498 5.72709 1.94669 5.62187 1.63101 5.67448C1.26272 5.72709 0.999649 5.99016 0.84181 6.30584C0.315679 7.51594 0 8.77865 0 10.1466C0 12.5668 0.999649 14.9344 2.68327 16.618C4.99825 18.9856 8.47071 19.8274 11.6275 18.933L15.7313 23.0368L1.47317 37.2424C0.736584 37.9789 0.315679 38.9786 0.315679 40.0309C0.315679 41.0831 0.736584 42.0828 1.47317 42.8194L7.10277 48.449C7.83936 49.1855 8.83901 49.6064 9.89127 49.6064C10.9435 49.6064 11.9432 49.1855 12.6798 48.449L26.9379 34.2434L31.0417 38.3472C30.8313 39.189 30.7261 39.9782 30.7261 40.8201C30.7261 43.2929 31.6731 45.6078 33.4093 47.2915C35.1456 49.0277 37.5132 49.9747 39.8808 49.9747C41.1435 49.9747 42.4588 49.7117 43.6689 49.1855C43.9846 49.0277 44.195 48.7646 44.3003 48.3963C44.3529 48.0281 44.2476 47.7124 43.9846 47.4493L40.5647 43.9768C40.0912 43.5033 39.8281 42.9246 39.8281 42.2406C39.8281 41.6093 40.0912 40.9779 40.5647 40.5044C41.4591 39.61 43.0902 39.61 44.0372 40.5044L47.457 43.9242C47.7201 44.1873 48.0358 44.2925 48.4041 44.2399C48.7724 44.1873 49.0354 43.9768 49.1933 43.6612C49.772 42.5037 50.0351 41.1883 50.0351 39.8204C49.9825 37.4002 49.0354 35.0852 47.2992 33.349ZM39.7229 8.88388C39.8808 8.72604 39.986 8.5682 40.0386 8.35775L40.67 5.56925L45.6156 2.51769L47.5097 4.41176L44.4581 9.3574L41.617 9.98876C41.4065 10.0414 41.2487 10.1466 41.0909 10.3044L29.3055 22.0372L27.9376 20.6692L39.7229 8.88388ZM11.154 46.9232C10.47 47.6071 9.25991 47.6071 8.57594 46.9232L3.05156 41.3462C2.68327 40.9779 2.52543 40.557 2.52543 40.0835C2.52543 39.61 2.73588 39.1364 3.05156 38.8208L17.3097 24.6152L25.4648 32.7702L11.154 46.9232ZM47.7201 41.1883L45.5104 38.9786C43.7215 37.295 40.6699 37.3476 39.0389 38.9786C38.1445 39.8204 37.671 40.9779 37.671 42.2406C37.671 43.5033 38.1445 44.6082 39.0389 45.5026L41.2487 47.7124C38.9863 48.1333 36.5661 47.4493 34.9351 45.8183C33.6198 44.503 32.8832 42.7141 32.8832 40.8201C32.8832 39.9782 33.041 39.189 33.3041 38.3998C33.462 38.0316 33.3567 37.558 33.041 37.295L12.6798 16.9337C12.4693 16.7232 12.2062 16.618 11.9432 16.618C11.838 16.618 11.6801 16.618 11.5749 16.6706C8.99685 17.6177 6.10312 16.9863 4.20905 15.0396C2.89372 13.7769 2.15714 11.9881 2.15714 10.094C2.15714 9.62047 2.20975 9.14695 2.26236 8.72604L4.47212 10.9358C6.26096 12.7246 9.2073 12.7246 10.9435 10.9358C11.838 10.094 12.3115 8.93649 12.3115 7.67378C12.3115 6.41106 11.838 5.30619 10.9435 4.46438L8.73378 2.25463C10.9961 1.83372 13.3637 2.46508 15.0474 4.1487C16.3627 5.51664 17.0993 7.25287 17.0993 9.14695C17.0993 9.98876 16.9414 10.8306 16.6784 11.5145C16.5205 11.9354 16.6257 12.3563 16.9414 12.672L37.2501 32.9807C37.5658 33.2964 37.9867 33.349 38.355 33.2438C40.933 32.2967 43.8267 32.9281 45.7208 34.8222C47.0361 36.1901 47.7727 37.9263 47.7727 39.8204C47.8253 40.2939 47.7727 40.7674 47.7201 41.1883Z" fill="white"/>
</svg>

<svg width="51" height="50" viewBox="0 0 51 50" fill="none" xmlns="http://www.w3.org/2000/svg"><path d="M16.468 28.93L5.998 39.4a1.08 1.08 0 000 1.525c.21.21.474.316.737.316s.526-.105.736-.316l10.47-10.47a1.08 1.08 0 000-1.526c-.368-.42-1.052-.42-1.473 0zM9.05 43.924c.21.21.474.316.737.316s.526-.105.736-.316l10.47-10.47a1.08 1.08 0 00-1.525-1.526L9.05 42.451a1.019 1.019 0 000 1.473z" fill="#fff"/><path d="M47.3 33.349c-2.316-2.315-5.788-3.21-8.998-2.315l-7.47-7.524 11.522-11.522 2.683-.579c.473-.105.842-.368 1.052-.736L49.456 5.2c.421-.631.316-1.473-.263-2.052l-2.42-2.42c-.526-.526-1.368-.632-2.052-.263l-5.419 3.367a1.854 1.854 0 00-.737 1.052l-.578 2.736-11.523 11.522-7.523-7.523c.21-.79.368-1.631.368-2.473 0-2.42-.947-4.735-2.683-6.471C13.942-.008 9.786-.744 6.366.834c-.315.158-.526.421-.631.79a1.06 1.06 0 00.316.946l3.42 3.42c.473.474.736 1.052.736 1.736 0 .684-.263 1.263-.737 1.737a2.477 2.477 0 01-3.472 0L2.578 5.99a1.109 1.109 0 00-.947-.316c-.368.053-.631.316-.79.632C.317 7.516 0 8.779 0 10.146c0 2.42 1 4.788 2.683 6.472 2.315 2.368 5.788 3.21 8.944 2.315l4.104 4.104L1.473 37.242a3.942 3.942 0 000 5.577l5.63 5.63a3.942 3.942 0 002.788 1.157 3.94 3.94 0 002.789-1.157l14.258-14.206 4.104 4.104a9.964 9.964 0 00-.316 2.473c0 2.473.947 4.788 2.683 6.471a9.21 9.21 0 006.472 2.684 9.588 9.588 0 003.788-.79c.316-.157.526-.42.631-.789a1.06 1.06 0 00-.315-.947l-3.42-3.472c-.474-.474-.737-1.052-.737-1.736 0-.632.263-1.263.737-1.737.894-.894 2.525-.894 3.472 0l3.42 3.42c.263.263.579.368.947.316.368-.053.631-.263.79-.579.578-1.157.841-2.473.841-3.84-.052-2.42-1-4.736-2.736-6.472zM39.722 8.884c.158-.158.263-.316.316-.526l.631-2.789 4.946-3.051 1.894 1.894-3.052 4.945-2.841.632c-.21.052-.368.158-.526.315L29.305 22.037l-1.367-1.368L39.723 8.884zm-28.569 38.04c-.684.683-1.894.683-2.578 0l-5.524-5.578a1.71 1.71 0 01-.527-1.262c0-.474.21-.948.527-1.263L17.31 24.615l8.155 8.155-14.311 14.153zm36.566-5.736l-2.21-2.21c-1.788-1.683-4.84-1.63-6.471 0-.895.842-1.368 2-1.368 3.263 0 1.262.474 2.367 1.368 3.262l2.21 2.21c-2.263.42-4.683-.264-6.314-1.895a7.043 7.043 0 01-2.052-4.998c0-.842.158-1.631.421-2.42a.977.977 0 00-.263-1.105L12.68 16.934a1.039 1.039 0 00-.737-.316c-.105 0-.263 0-.368.053-2.578.947-5.472.315-7.366-1.631-1.315-1.263-2.052-3.052-2.052-4.946 0-.474.053-.947.105-1.368l2.21 2.21c1.789 1.789 4.735 1.789 6.471 0 .895-.842 1.369-2 1.369-3.262 0-1.263-.474-2.368-1.368-3.21l-2.21-2.21c2.262-.42 4.63.211 6.313 1.895C16.363 5.517 17.1 7.253 17.1 9.147c0 .842-.158 1.684-.42 2.367-.159.421-.053.842.262 1.158l20.31 20.309c.315.315.736.368 1.104.263 2.578-.947 5.472-.316 7.366 1.578 1.315 1.368 2.052 3.104 2.052 4.998.052.474 0 .947-.053 1.368z" fill="#fff"/></svg>
